X: 29896
T: O'Neill's Maggot
R: jig
M: 6/8
K: Dmajor
|:A|d2 e f2 e|d2 c d2 B|A2 F d2 F|EEE E2 A|
d2 e f2 e|dcd BdB|A2 F d2 F|DDD D2:|
|:E|F2 D A2 F|DED A2 F|E2 E B2 G|EGE B2 G|
DED A2 F|DFD A2 F|GFE A2 F|DDD D2:|
|:f|a3 a2 f|aaa a2 f|g2 e B2 e|gfe b2 e|
a3 a2 f|aba agf|g2 e a2 c|d3 d2:|

